X: 7972
T: Congress, The
R: reel
M: 4/4
K: Adorian
B/c/d|:eAAG A2B/c/d|eaaf gedB|eAAG ABAA|BGGF GABd|
eAAG ABcd|eaaf gedB|cBcd e/f/ged|c/B/ABG A2B/c/d:|
|:eaag abag|eaag egdg|e/f/gdg e/f/gdg|eaaf ged2|
eaag abag|eaaf gedB|cBcd e/f/ged|c/B/ABG A2B/c/d:|

